!!!!SEGMENT: pl-kk--kk-i-1--055-001_anonim--missa-dominicale-kyrie.krn
!!!cenid: 15xx:775
!!!COM: Anonim
!!!COM-rismid: pe30004985
!!!CDT:
!!!CNT:
!!!OPR: [Missa] Dominicale
!!!OTL: Kyrie
!!!OMV: 001
!!!PDT:
!!!AGN:
!!!SMS-siglum: PL-Kk
!!!SMS-shelfmark: Kk.I.1
!!!SMS-shelfwork: 055-001 M
!!!SMS-variant:
!!!SMS-altvar:
!!!NIFC-rismid: 300258009
!!!URL-scan: http://repozytorium.nifc.pl/skany/pl-kk-nut--i-1
!!!ONB-nifc: UWAGA: Cantus (s. 166r-173v, skan 0168-0176), Altus (s. 162v-170r, skan 0356-0363), Tenor (s. 141r-146r, skan 0531-0536), Bassus (s. 152r-159v, skan 0714-0722). Części Mszy: 1. Kyrie, 2. Et in terra, 3. Sanctus, 4. Agnus Dei
!!!AIN: 1 alto 1 bass 1 soprn 1 tenor
!!!key:
**kern	**text	**kern	**text	**kern	**text	**kern	**text
*part4	*part4	*part3	*part3	*part2	*part2	*part1	*part1
*staff4	*staff4	*staff3	*staff3	*staff2	*staff2	*staff1	*staff1
*I"BASSVS	*	*I"TENOR	*	*I"ALTVS	*	*I"CANTVS	*
*I'B	*	*I'T	*	*I'A	*	*I'S	*
*Ibass	*	*Itenor	*	*Ialto	*	*Isoprn	*
*ICvox	*	*ICvox	*	*ICvox	*	*ICvox	*
*clefF4	*	*clefC4	*	*clefC4	*	*clefC2	*
*stria6	*	*stria6	*	*stria6	*	*stria6	*
*k[]	*	*k[]	*	*k[]	*	*k[]	*
*C:	*	*C:	*	*C:	*	*C:	*
*M2/1	*	*M2/1	*	*M2/1	*	*M2/1	*
*met(C|)	*	*met(C|)	*	*met(C|)	*	*met(C|)	*
=1-	=1-	=1-	=1-	=1-	=1-	=1-	=1-
1GG	Kÿ-	1G	Kÿ-	2.B\	Kÿ-	2r	.
.	.	.	.	.	.	1g	Kÿ-
.	.	.	.	4c\	-ri-	.	.
*	*	*lig	*	*	*	*	*
1D	-ri-	1A	-ri-	1d	-e	.	.
.	.	.	.	.	.	2f#X\	-ri-
=2-	=2-	=2-	=2-	=2-	=2-	=2-	=2-
2GG/	-e	1G	.	2B\	.	2g\	-e
4C/	.	.	.	1c	.	1e	e-
4D/	.	.	.	.	.	.	.
*	*	*Xlig	*	*	*	*	*
*	*	*lig	*	*	*	*	*
4E\	.	1G	-e	.	.	.	.
4F\	.	.	.	.	.	.	.
1G\	.	.	.	2B\	.	2d\	-leÿ-
=3-	=3-	=3-	=3-	=3-	=3-	=3-	=3-
.	.	1D	.	0A	.	1d	-son.
4F\	.	.	.	.	.	.	.
4E\	.	.	.	.	.	.	.
*	*	*Xlig	*	*	*	*	*ij
1D	.	1F	.	.	.	2r	.
.	.	.	.	.	.	1d/	Kÿ-
=4-	=4-	=4-	=4-	=4-	=4-	=4-	=4-
1AA	.	1E	.	2A/	.	.	.
.	.	.	.	2.A/	.	2c#X/	.
2r	.	0D	.	.	.	4d\	-ri-
.	.	.	.	4G/	.	4e\	.
4D/	.	.	.	4F/	.	4f\ny	.
4E/	.	.	.	4E/	.	4g\	.
=5-	=5-	=5-	=5-	=5-	=5-	=5-	=5-
4F\	.	.	.	2D/	.	2a\	.
4G\	.	.	.	.	.	.	.
1A	.	.	.	2d\	.	2f\	.
.	.	1E	e-	2c\	.	1e	.
2G#X\	.	.	.	2B\	.	.	.
=6-	=6-	=6-	=6-	=6-	=6-	=6-	=6-
2A\	.	1F	.	1A	.	2a\	.
2D/	.	.	.	.	.	1f	.
1C	.	1G	.	2c\	.	.	.
.	.	.	.	2.c\	.	2e\	.
=7-	=7-	=7-	=7-	=7-	=7-	=7-	=7-
*	*	*lig	*	*	*	*	*
1FF	.	1A	.	.	.	1f	-e
*	*	*	*	*custos:c	*	*	*
.	.	.	.	4c\	.	.	.
!	!	!	!	!LO:LB:g=original	!	!	!
.	.	.	.	1c	.	.	.
*custos:D	*	*	*	*	*	*custos:d	*
1GG	.	1G	.	.	.	0d	.
.	.	.	.	2B\	e-	.	.
!LO:LB:g=original	!	!	!	!	!	!LO:LB:g=original	!
*	*	*Xlig	*	*	*	*	*
=8-	=8-	=8-	=8-	=8-	=8-	=8-	=8-
1D	.	1F	-lei-	1A	-leÿ-	.	.
!	!	!LO:N:vis=00	!	!	!	!	!
2GG;</	.	[y2G	-son	2B\	-son.	2d\	e-
!LO:TX:t=P:problem=kreska pseudotaktowa	!	!	!	!	!	!LO:TX:t=P:problem=kreska pseudotaktowa	!
2.C/	e	[y2.G]yy	.	1c\	.	1e\	.
=9-	=9-	=9-	=9-	=9-	=9-	=9-	=9-
.	.	.	.	.	.	.	.
4D/	.	[y2.G]yy	.	.	.	.	.
4E\	.	.	.	1c	.	2e\	-leÿ-
4F\	.	.	.	.	.	.	.
1Gny	.	[y1G]yy	.	.	.	1d	.
.	.	.	.	2B\	.	.	.
=10-	=10-	=10-	=10-	=10-	=10-	=10-	=10-
2C/	.	00G]yy	.	2e\	.	2c/ny	.
2GG/	.	.	.	2d\	.	2B/	.
1C	.	.	.	1.c	.	1e	.
=11-	=11-	=11-	=11-	=11-	=11-	=11-	=11-
0GG;	.	.	.	.	.	0d	-son
*	*	*	*	*	*	*	*Xij
.	.	.	.	4B/	.	.	.
.	.	.	.	4A/	.	.	.
.	.	.	.	1B	.	.	.
=12||-	=12||-	=12||-	=12||-	=12||-	=12||-	=12||-	=12||-
1AA	CHri-	1A	CHri-	2r	.	1e	CHri-
.	.	.	.	2.c\	CHri-	.	.
1.C	.	1G	.	.	.	2e\	-ste
.	.	.	.	4d\	.	.	.
.	.	.	.	1e\	-ste	4c/	.
.	.	.	.	.	.	4d/	.
=13-	=13-	=13-	=13-	=13-	=13-	=13-	=13-
*	*	*lig	*	*	*	*	*
.	.	1c	-ste	.	.	4e/	.
.	.	.	.	.	.	4f/	.
2C/	-ste	.	.	2e\	.	1g	.
*	*	*custos:G	*	*	*	*	*
1D	.	1A	.	1d	.	.	.
.	.	.	.	.	.	2f#X\	.
!	!	!LO:LB:g=original	!	!	!	!	!
*	*	*Xlig	*	*	*	*	*
=14-	=14-	=14-	=14-	=14-	=14-	=14-	=14-
*	*	*	*	*custos:A	*	*	*
2GG/	.	1G	.	1B	.	2g\	.
2G\	.	.	.	.	.	4d\	.
.	.	.	.	.	.	4e\	.
!	!	!	!	!LO:LB:g=original	!	!	!
2F\	.	1c	.	2A/	.	2f\ny	.
2A\	.	.	.	2.c\	.	4e\	.
.	.	.	.	.	.	4f\	.
=15-	=15-	=15-	=15-	=15-	=15-	=15-	=15-
*	*	*lig	*	*	*	*	*
1.G	.	1d	.	.	.	1g	.
.	.	.	.	8B\L	.	.	.
.	.	.	.	8A\J	.	.	.
.	.	.	.	4B\	.	.	.
.	.	.	.	4c\	.	.	.
.	.	1B	.	1d	.	1g	.
*custos:C	*	*	*	*	*	*	*
2G\	.	.	.	.	.	.	.
!LO:LB:g=original	!	!	!	!	!	!	!
*	*	*Xlig	*	*	*	*	*
=16-	=16-	=16-	=16-	=16-	=16-	=16-	=16-
2C/	.	1c	.	2e\	.	2e\	.
2C/	.	.	.	2e\	.	1g	.
1D	.	1A	.	2.d\	.	.	.
*	*	*	*	*	*	*custos:e	*
.	.	.	.	.	.	2f\	.
.	.	.	.	4c\	.	.	.
!	!	!	!	!	!	!LO:LB:g=original	!
=17-	=17-	=17-	=17-	=17-	=17-	=17-	=17-
2E/	.	1G	.	2B\	.	2.e\	.
2C/	.	.	.	2c\	.	.	.
.	.	.	.	.	.	4e\	.
1D	.	1F	.	2.A/	.	2f\	.
.	.	.	.	.	.	2d\	.
.	.	.	.	4B\	.	.	.
=18-	=18-	=18-	=18-	=18-	=18-	=18-	=18-
2AA/	.	1E	.	2c\	.	2e\	.
2C/	.	.	.	2G/	.	1c	.
0GG	.	0D	.	1G	.	.	.
.	.	.	.	.	.	4B/	.
.	.	.	.	.	.	4A/	.
=19-	=19-	=19-	=19-	=19-	=19-	=19-	=19-
.	.	.	.	1.G	.	2B/	.
.	.	.	.	.	.	2B/	.
2C/	.	1E	e-	.	.	1c	.
2C/	.	.	.	1A/	.	.	.
=20-	=20-	=20-	=20-	=20-	=20-	=20-	=20-
*	*	*lig	*	*	*	*	*
1D	.	1F	.	.	.	1f	.
.	.	.	.	1B	.	.	.
1E	.	1G	.	.	.	1e	.
.	.	.	.	2c\	.	.	.
*	*	*Xlig	*	*	*	*	*
=21-	=21-	=21-	=21-	=21-	=21-	=21-	=21-
*	*	*lig	*	*	*	*	*
2.AA/	e-	1A	.	2.e\	.	2.c/	e-
*	*	*	*	*custos:c	*	*	*
4BB/	-le-	.	.	4d\	.	4d\	-le-
!	!	!	!	!LO:LB:g=original	!	!	!
1C	-ÿ-	1G	.	1c	e-	4e\	.
.	.	.	.	.	.	4f\	-y-
.	.	.	.	.	.	4g\	-son
.	.	.	.	.	.	4e\	.
*	*	*Xlig	*	*	*	*	*
=22-	=22-	=22-	=22-	=22-	=22-	=22-	=22-
1D	-son	1F	-lei-	2A/	-leÿ-	1a	.
!	!	!	!	!LO:TX:t=P:problem=kreska pseudotaktowa	!	!	!
.	.	.	.	2d\	-son	.	.
!	!	!LO:N:vis=00	!	!	!	!	!
2GG;</	.	[y1G	-son.	2B\	.	2g\	.
!LO:TX:t=P:problem=kreska pseudotaktowa	!	!	!	!	!	!LO:TX:t=P:problem=kreska pseudotaktowa	!
2C/	.	.	.	1c\	.	2e\	.
!	!	!	!	!	!	!LO:LB:g=original	!
=23-	=23-	=23-	=23-	=23-	=23-	=23-	=23-
2C/	.	00G]yy	.	.	.	2e\	.
2BB/	.	.	.	2d\	.	2d\	.
1C	.	.	.	2G/	.	1e	.
.	.	.	.	1c\	.	.	.
=24-	=24-	=24-	=24-	=24-	=24-	=24-	=24-
0GG;	.	.	.	.	.	0d	.
.	.	.	.	4B\	.	.	.
.	.	.	.	4A\	.	.	.
.	.	.	.	1B	.	.	.
!LO:LB:g=original	!	!	!	!	!	!LO:LB:g=original	!
=25||-	=25||-	=25||-	=25||-	=25||-	=25||-	=25||-	=25||-
!	!	!	!	!	!	!LO:TX:t=P:problem=ostatni system w połowie skreślony, w połowie zaklejony. Dalszy ciąg partii zapisany na dole sąsiedniej, lewej strony. \n odnośnikiem Vi-de	!
1C	Ky-	1G	Kÿ-	1c	Kÿ-	1e	Ky-
*	*	*lig	*	*	*	*	*
2F/	-rie	1A	-ri-	2c\	-ri-	1f	-ri-
2D/	e-	.	.	1d\	.	.	.
=26-	=26-	=26-	=26-	=26-	=26-	=26-	=26-
2.E\	-le-	1G	.	.	.	1e	-e
.	.	.	.	2c\	.	.	.
4F\	-ÿ-	.	.	.	.	.	.
*	*	*Xlig	*	*	*	*	*
*	*	*lig	*	*	*	*	*
2G\	-son	1G	-e	2B\	-e	2d/	E-
2C/	.	.	.	2c\	.	2e/	.
=27-	=27-	=27-	=27-	=27-	=27-	=27-	=27-
*	*ij	*	*	*	*	*	*
*	*	*custos:F	*	*	*	*	*
2.F\	e-	1D	.	2r	.	2A/	.
.	.	.	.	1A	.	2.f\	.
4E\	.	.	.	.	.	.	.
!	!	!LO:LB:g=original	!	!	!	!	!
*	*	*Xlig	*	*	*	*	*
4D/	.	1F	.	.	.	.	.
4C/	.	.	.	.	.	4e\	.
2D/	-leÿ-	.	.	2A/	.	1d/	-le-
=28-	=28-	=28-	=28-	=28-	=28-	=28-	=28-
*	*	*	*	*custos:f	*	*	*
1AA	-son	1E	.	1e	.	.	.
.	.	.	.	.	.	2c#X/	-y-
!	!	!	!	!LO:PB:g=original	!	!	!
2.A\	e-	0D	.	2.f\	.	2d/	-son
*	*	*	*	*	*	*	*ij
.	.	.	.	.	.	2.a\	Ky-
4G\	.	.	.	4e\	.	.	.
=29-	=29-	=29-	=29-	=29-	=29-	=29-	=29-
4F\	.	.	.	1d	.	.	.
4E\	.	.	.	.	.	4g\	.
2D/	-leÿ-	.	.	.	.	2f\	.
1C	.	1E	e-	2G/	.	2e\	-ri-
.	.	.	.	2G/	.	2g\	-e
=30-	=30-	=30-	=30-	=30-	=30-	=30-	=30-
2FF/	-son	1F	.	2.A/	.	1a	e-
1F	e-	.	.	.	.	.	.
.	.	.	.	4B/	.	.	.
.	.	1G	.	1.c	.	2.g\	-le-
2E\	.	.	.	.	.	.	.
.	.	.	.	.	.	4g\	-y-
=31-	=31-	=31-	=31-	=31-	=31-	=31-	=31-
*	*	*lig	*	*	*	*	*
*	*	*	*	*	*	*custos:e	*
2F\	.	1A	.	.	.	1f	-son
*	*	*	*	*	*	*	*Xij
2D/	-le-	.	.	2d\	.	.	.
!	!	!	!	!	!	!LO:TX:t=P::problem=ta pauza jest zdublowana&colon; jest na koniec partii dopisanej oraz na początku ciągu dalszego, na nowej stronie	!
!	!	!	!	!	!	!LO:TX:b:i:t=Verte	!
!	!	!	!	!	!	!LO:PB:g=original	!
2E\	-ÿ-	1G	.	2B\	.	2rg	.
2C/	-son	.	.	2c\	.	2e\	.
*	*Xij	*Xlig	*	*	*	*	*
=32-	=32-	=32-	=32-	=32-	=32-	=32-	=32-
2r	.	1F	-leÿ-	2.A/	.	2f\	.
2D/	.	.	.	.	.	1d	.
.	.	.	.	4A/	.	.	.
!	!	!LO:N:vis=00	!	!	!	!	!
2BB/	.	[y1G	-son	2G/	.	.	.
!	!	!	!	!LO:TX:t=P:problem=kreska pseudotaktowa	!	!	!
2C/	.	.	.	1c\	.	2e\	.
=33-	=33-	=33-	=33-	=33-	=33-	=33-	=33-
0GG	.	00G]yy	.	.	.	0d	.
.	.	.	.	4B\	.	.	.
.	.	.	.	4A\	.	.	.
.	.	.	.	2B\	.	.	.
.	.	.	.	2B\	.	.	.
=34-	=34-	=34-	=34-	=34-	=34-	=34-	=34-
0C	.	.	.	0c	.	0e	.
!LO:PB:g=original	!	!	!	!LO:LB:g=original	!	!	!
=35||-	=35||-	=35||-	=35||-	=35||-	=35||-	=35||-	=35||-
2r	.	1G	Kÿ-	2d\	Kÿ-	2rg	.
1G	Kÿ-	.	.	2B\	-ri-	2g\	Kÿ-
*	*	*lig	*	*	*	*	*
.	.	1A	-ri-	2.c\	-e	2e\	-ri-
1F\	-ri-	.	.	.	.	2f\	-e
.	.	.	.	4A/	e-	.	.
=36-	=36-	=36-	=36-	=36-	=36-	=36-	=36-
.	.	1G	.	1B	-lei-	2d\	e-
4E\	-e	.	.	.	.	1e	-leÿ-
4D\	.	.	.	.	.	.	.
*	*	*Xlig	*	*	*	*	*
*	*	*lig	*	*	*	*	*
2E/	.	1G	-e	1c	-son	.	.
2C/	e-	.	.	.	.	2e\	-son.
=37-	=37-	=37-	=37-	=37-	=37-	=37-	=37-
2.F\	-le-	1D	.	2rc	.	2rg	.
.	.	.	.	1f	.	1a	.
4E\	-ÿ-	.	.	.	.	.	.
*	*	*Xlig	*	*	*	*	*
1D	-son.	1F	.	.	.	.	.
.	.	.	.	2d\	.	2f\	.
=38-	=38-	=38-	=38-	=38-	=38-	=38-	=38-
1C	.	1E	.	2e\	.	2.g\	.
.	.	.	.	2c/	.	.	.
.	.	.	.	.	.	4e\	.
*	*	*	*	*	*	*custos:e	*
2r	.	0D	.	1d	.	0f	.
1A\	.	.	.	.	.	.	.
=39-	=39-	=39-	=39-	=39-	=39-	=39-	=39-
.	.	.	.	2A/	.	.	.
2F\	.	.	.	2d\	.	.	.
!	!	!	!	!	!	!LO:LB:g=original	!
2.G\	.	1E	.	2c\	.	2e\	.
.	.	.	.	2B\	.	2g\	.
4E\	.	.	.	.	.	.	.
=40-	=40-	=40-	=40-	=40-	=40-	=40-	=40-
1D	.	1F	.	2d\	.	2f\	.
.	.	.	.	4A/	.	2d\	.
.	.	.	.	4B/	.	.	.
*	*	*custos:A	*	*	*	*	*
!	!	!LO:TX:a:i:t=Ultimum	!	!	!	!	!
2C/	.	1G	.	2c\	.	4e\	.
.	.	.	.	.	.	4f\	.
2G\	.	.	.	4B\	.	1g\	.
.	.	.	.	4c\	.	.	.
!	!	!LO:LB:g=original	!	!	!	!	!
=41-	=41-	=41-	=41-	=41-	=41-	=41-	=41-
*lig	*	*lig	*	*	*	*	*
1D	.	1A	.	1d	.	.	.
.	.	.	.	.	.	2f#X\	.
*	*	*	*	*custos:e	*	*	*
1E	.	1G	.	1B	.	1.g	.
*Xlig	*	*Xlig	*	*	*	*	*
!	!	!	!	!LO:LB:g=original	!	!	!
=42-	=42-	=42-	=42-	=42-	=42-	=42-	=42-
1C	.	1c	.	1e	.	.	.
.	.	.	.	.	.	2g\	.
2rB	.	1A	.	2e\	.	1a	.
1c\	.	.	.	2c\	.	.	.
=43-	=43-	=43-	=43-	=43-	=43-	=43-	=43-
.	.	1G	.	2.d\	.	2d\	.
*custos:A	*	*	*	*	*	*	*
2B\	.	.	.	.	.	2g\	.
.	.	.	.	4d\	.	.	.
!LO:LB:g=original	!	!	!	!	!	!	!
2A\	.	1c	.	2e\	.	2.e\	.
2A\	.	.	.	2.c\	.	.	.
.	.	.	.	.	.	4f\ny	.
=44-	=44-	=44-	=44-	=44-	=44-	=44-	=44-
*	*	*lig	*	*	*	*	*
0G	.	1d	.	.	.	1.g	.
.	.	.	.	8B\L	.	.	.
.	.	.	.	8A\J	.	.	.
.	.	.	.	2B\	.	.	.
.	.	1B	.	1d	.	.	.
.	.	.	.	.	.	2g\	.
*	*	*Xlig	*	*	*	*	*
=45-	=45-	=45-	=45-	=45-	=45-	=45-	=45-
*	*ij	*lig	*	*	*	*	*
2C/	.	1c	.	1e	.	2g\	.
2C/	Kÿ-	.	.	.	.	2e\	.
2F/	-ri-	1A	.	2re	.	2c/ny	.
2D/	.	.	.	2f\	.	2.d\	.
*	*	*Xlig	*	*	*	*	*
=46-	=46-	=46-	=46-	=46-	=46-	=46-	=46-
2E/	-e	1G	.	2e\	.	.	.
.	.	.	.	.	.	4B/	.
2C/	e-	.	.	2e\	.	2c/	.
*	*	*	*	*	*	*custos:A	*
2.D/	-le-	1F	.	2.d\	.	2A/	.
!	!	!	!	!	!	!LO:LB:g=original	!
.	.	.	.	.	.	2A/	.
4D/	-ÿ-	.	.	4d\	.	.	.
=47-	=47-	=47-	=47-	=47-	=47-	=47-	=47-
2AA/	-son.	1E	.	2c\	.	2A/	.
*	*Xij	*	*	*	*	*	*
2C/	.	.	.	1G	Kÿ-	4G/	.
.	.	.	.	.	.	4A/	.
2GG/	.	0D	.	.	.	2B/	.
2FF/	.	.	.	2A/	-ri-	1c/	.
=48-	=48-	=48-	=48-	=48-	=48-	=48-	=48-
1GG	.	.	.	2G/	-e	.	.
.	.	.	.	1G	.	2B/	.
2C/	.	1E	e-	.	.	1c	.
*	*	*	*	*custos:B	*	*	*
2C/	.	.	.	1A/	.	.	.
=49-	=49-	=49-	=49-	=49-	=49-	=49-	=49-
1D	.	1F	.	.	.	1f	.
!	!	!	!	!LO:LB:g=original	!	!	!
.	.	.	.	1B	.	.	.
2E/	.	1G	.	.	.	2e\	.
1C/	.	.	.	4c\	.	1g\	.
.	.	.	.	4d\	.	.	.
=50-	=50-	=50-	=50-	=50-	=50-	=50-	=50-
*	*	*lig	*	*	*	*	*
.	.	1A	.	2e\	.	.	.
2D/	.	.	.	4d\	.	2f#X\	.
.	.	.	.	4c\	.	.	.
2GG/	.	1G	.	2B\	.	2g\	.
*custos:D	*	*	*	*	*	*	*
2C/	.	.	.	2c\	.	2e\	.
!LO:LB:g=original	!	!	!	!	!	!	!
*	*	*Xlig	*	*	*	*	*
=51-	=51-	=51-	=51-	=51-	=51-	=51-	=51-
1D	.	1F	-leÿ-	1A	e-	2d\	.
.	.	.	.	.	.	2.d\	.
!	!	!LO:N:vis=00	!	!	!	!	!
1GG	.	[y1G;	-son.	2B\	-leÿ-	.	.
.	.	.	.	.	.	4c/	.
.	.	.	.	2.d\	-son	4B/	.
.	.	.	.	.	.	4A/	.
=52-	=52-	=52-	=52-	=52-	=52-	=52-	=52-
*	*ij	*	*	*	*	*	*
2.G\	Kÿ-	[y0G]yy	.	.	.	2B/	.
.	.	.	.	4c\	.	.	.
.	.	.	.	4B\	.	2G/	.
4F\	.	.	.	4A\	.	.	.
2E\	-ri-	.	.	1B	.	2.g\	.
2D/	-e	.	.	.	.	.	.
*	*	*	*	*	*	*custos:e	*
.	.	.	.	.	.	4f\ny	.
!	!	!	!	!	!	!LO:LB:g=original	!
=53-	=53-	=53-	=53-	=53-	=53-	=53-	=53-
!	!	!	!	!	!	!LO:TX:t=P:problem=końcówka partii na przedartej karcie, ale czytelna. Na wszelki wypadek na końcu systemu dopisana raz jeszcze, z różnicą jednej caudy oraz ligatury na dwóch ostatnich nutach. Do tego odsyłacz Vi - de 	!
2C/	.	00G]yy	.	2c\	.	2e\	.
2BB/	e-	.	.	2d\	.	2d\	.
1C	-leÿ-	.	.	2G/	.	1e	.
.	.	.	.	1c\	.	.	.
=54-	=54-	=54-	=54-	=54-	=54-	=54-	=54-
0GG;	-son.	.	.	.	.	0d	.
*	*Xij	*	*	*	*	*	*
.	.	.	.	4B\	.	.	.
.	.	.	.	4A\	.	.	.
.	.	.	.	1B	.	.	.
=-	=-	=-	=-	=-	=-	=-	=-
*-	*-	*-	*-	*-	*-	*-	*-
!!!system-decoration: [(s1,s2,s3,s4)]
!!!RDF**kern: > = above
!!!RDF**kern: < = below
!!!ENC: Mateusz Solarz
!!!END: 2022-03-16
!!!EED: Antoni Szymański
!!!EEV: 2022-03-20
